symbolic/32x32/apps/freeplane.svg

<svg xmlns="http://www.w3.org/2000/svg" width="32" height="32" version="1">
 <path style="opacity:0.2" d="M 16,3.0000001 C 8.2439999,3.0000001 2,9.2440001 2,17 2,24.755999 8.2439999,31 16,31 23.756,31 30,24.755999 30,17 30,9.2440001 23.756,3.0000001 16,3.0000001 Z"/>
 <path style="fill:#fead38" d="M 16,2.0000001 C 8.2439999,2.0000001 2,8.2440001 2,16 2,23.755999 8.2439999,30 16,30 23.756,30 30,23.755999 30,16 30,8.2440001 23.756,2.0000001 16,2.0000001 Z"/>
 <path style="fill:#3f3f3f" d="M 16.217383,2.0054689 A 21.003038,21.015963 0 0 0 2.7396484,20.480274 c 0.8161233,2.42995 2.2732154,4.555889 4.1794924,6.179687 A 21.003038,21.015963 0 0 1 6.9,25.819141 21.003038,21.015963 0 0 1 24.741797,5.0597657 C 22.40135,3.1899162 19.447426,2.0544186 16.217383,2.0054689 Z"/>
 <path style="fill:#3f3f3f" d="M 26.319532,6.5445316 A 21.003038,21.015963 0 0 0 9,27.216406 21.003038,21.015963 0 0 0 9.047852,28.152929 c 1.297026,0.741159 2.719369,1.288578 4.236915,1.584571 A 21.003038,21.015963 0 0 1 29.09082,11.05625 C 28.457252,9.3709091 27.511789,7.8457742 26.319532,6.5445316 Z"/>
 <path style="fill:#ffffff;opacity:0.2" d="M 16 2 C 8.2439999 2 2 8.2440001 2 16 C 2 16.168842 2.0195214 16.33264 2.0253906 16.5 C 2.2891326 8.9794326 8.4128417 3 16 3 C 23.587158 3 29.710867 8.9794326 29.974609 16.5 C 29.980479 16.33264 30 16.168842 30 16 C 30 8.2440001 23.756 2 16 2 z"/>
 <circle style="opacity:0.2" cx="19.5" cy="18.5" r="5.5"/>
 <circle style="opacity:0.2" cx="28" cy="15" r="4"/>
 <circle style="fill:#ffffff" cx="19.5" cy="17.5" r="5.5"/>
 <circle style="fill:#3f3f3f" cx="18.5" cy="19.5" r="2.5"/>
 <circle style="fill:#ffffff" cx="28" cy="14" r="4"/>
 <circle style="fill:#3f3f3f" cx="27" cy="15" r="2"/>
 <path style="opacity:0.1" d="M 24,27.666667 C 24,27.666667 22.209138,29 20,29 c -2.209138,0 -4,-2.527241 -4,-4 0,0 2.120127,1.544871 3.333334,2 C 21.62713,27.860508 24,27.666667 24,27.666667 Z"/>
 <path style="fill:#3f3f3f" d="M 24,26.666667 C 24,26.666667 22.209138,28 20,28 c -2.209138,0 -4,-2.527241 -4,-4 0,0 2.120127,1.544871 3.333334,2 C 21.62713,26.860508 24,26.666667 24,26.666667 Z"/>
 <path style="opacity:0.2" d="M 7.9041417,20.731422 C 10.984191,19.259899 13.703367,20.078627 13.977593,22.5601 14.251818,25.041575 11.97725,28.246111 8.8972002,29.717635 5.8171517,31.189157 0.28487062,26.550882 0.0106452,24.069408 -0.26358021,21.587934 4.8240935,22.202945 7.9041417,20.731422 Z"/>
 <path style="fill:#e4e4e4" d="M 7.9041417,19.731422 C 10.984191,18.259899 13.703367,19.078627 13.977593,21.5601 14.251818,24.041575 11.97725,27.246111 8.8972002,28.717635 5.8171517,30.189157 0.28487062,25.550882 0.0106452,23.069408 -0.26358021,20.587934 4.8240935,21.202945 7.9041417,19.731422 Z"/>
 <path style="opacity:0.2;fill:#ffffff" d="M 11.107422 19.009766 C 10.163801 18.950545 9.0593154 19.178648 7.9042969 19.730469 C 4.8242487 21.201992 -0.26445979 20.588839 0.009765625 23.070312 C 0.022315539 23.183877 0.057960734 23.305928 0.091796875 23.427734 C 0.73313904 21.695933 5.1279417 22.056899 7.9042969 20.730469 C 10.955656 19.272653 13.650181 20.066523 13.966797 22.494141 C 14.005813 22.175056 14.011899 21.862631 13.978516 21.560547 C 13.807124 20.009626 12.680123 19.108467 11.107422 19.009766 z"/>
</svg>

<svg xmlns="http://www.w3.org/2000/svg" width="32" height="32" version="1"><path style="opacity:.2" d="M16 3C8.244 3 2 9.244 2 17s6.244 14 14 14 14-6.244 14-14S23.756 3 16 3z"/><path style="fill:#fead38" d="M16 2C8.244 2 2 8.244 2 16s6.244 14 14 14 14-6.244 14-14S23.756 2 16 2z"/><path style="fill:#3f3f3f" d="M16.217 2.005A21.003 21.016 0 0 0 2.74 20.48a13.949 13.949 0 0 0 4.18 6.18 21.003 21.016 0 0 1-.02-.84A21.003 21.016 0 0 1 24.742 5.06a13.942 13.942 0 0 0-8.525-3.055z"/><path style="fill:#3f3f3f" d="M26.32 6.545A21.003 21.016 0 0 0 9 27.216a21.003 21.016 0 0 0 .048.937 13.893 13.893 0 0 0 4.237 1.585A21.003 21.016 0 0 1 29.09 11.056a13.929 13.929 0 0 0-2.771-4.511z"/><path style="fill:#fff;opacity:.2" d="M16 2C8.244 2 2 8.244 2 16c0 .169.02.333.025.5C2.29 8.98 8.413 3 16 3s13.71 5.98 13.975 13.5c.005-.167.025-.331.025-.5 0-7.756-6.244-14-14-14z"/><circle style="opacity:.2" cx="19.5" cy="18.5" r="5.5"/><circle style="opacity:.2" cx="28" cy="15" r="4"/><circle style="fill:#fff" cx="19.5" cy="17.5" r="5.5"/><circle style="fill:#3f3f3f" cx="18.5" cy="19.5" r="2.5"/><circle style="fill:#fff" cx="28" cy="14" r="4"/><circle style="fill:#3f3f3f" cx="27" cy="15" r="2"/><path style="opacity:.1" d="M24 27.667S22.21 29 20 29s-4-2.527-4-4c0 0 2.12 1.545 3.333 2 2.294.86 4.667.667 4.667.667z"/><path style="fill:#3f3f3f" d="M24 26.667S22.21 28 20 28s-4-2.527-4-4c0 0 2.12 1.545 3.333 2 2.294.86 4.667.667 4.667.667z"/><path style="opacity:.2" d="M7.904 20.731c3.08-1.471 5.8-.652 6.074 1.83.274 2.48-2 5.685-5.08 7.157C5.817 31.189.284 26.55.01 24.069c-.275-2.481 4.813-1.866 7.893-3.338z"/><path style="fill:#e4e4e4" d="M7.904 19.731c3.08-1.471 5.8-.652 6.074 1.83.274 2.48-2 5.685-5.08 7.157C5.817 30.189.284 25.55.01 23.069c-.275-2.481 4.813-1.866 7.893-3.338z"/><path style="opacity:.2;fill:#fff" d="M11.107 19.01c-.943-.06-2.048.169-3.203.72-3.08 1.472-8.168.859-7.894 3.34.012.114.048.236.082.358.641-1.732 5.036-1.371 7.812-2.698 3.052-1.457 5.746-.663 6.063 1.764.039-.319.045-.631.012-.933-.172-1.551-1.299-2.453-2.872-2.551z"/></svg>
